Obsidian/actions/16s/code-typedef.svg

<svg xmlns="http://www.w3.org/2000/svg" width="16" height="16" viewBox="0 0 16 16">
 <defs>
  <style id="current-color-scheme" type="text/css">
   .ColorScheme-Text { color:#bebebe; } .ColorScheme-Highlight { color:#4285f4; }
  </style>
 </defs>
 <path style="fill:currentColor" class="ColorScheme-Text" d="M 3 1.0039062 A 1.99995 1.99995 0 0 0 1 3.0039062 A 1.99995 1.99995 0 0 0 3 5.0039062 A 1.99995 1.99995 0 0 0 4 4.734375 L 4 7.0039062 L 1 7.0039062 L 1 14.003906 L 4 14.003906 L 4 15.003906 L 15 15.003906 L 15 11.003906 L 4 11.003906 L 4 12.003906 L 3 12.003906 L 3 9.0039062 L 4 9.0039062 L 4 10.003906 L 15 10.003906 L 15 4.0039062 L 4.7285156 4.0039062 A 1.99995 1.99995 0 0 0 5 3.0039062 A 1.99995 1.99995 0 0 0 3 1.0039062 z M 3 2.0039062 A 0.999975 0.999975 0 0 1 4 3.0039062 A 0.999975 0.999975 0 0 1 3 4.0039062 A 0.999975 0.999975 0 0 1 2 3.0039062 A 0.999975 0.999975 0 0 1 3 2.0039062 z"/>
</svg>

<svg height="16" viewBox="0 0 16 16" width="16" xmlns="http://www.w3.org/2000/svg"><path d="m3 1.0039062a1.99995 1.99995 0 0 0 -2 2 1.99995 1.99995 0 0 0 2 2 1.99995 1.99995 0 0 0 1-.2695312v2.2695312h-3v6.9999998h3v1h11v-4h-11v1h-1v-2.9999998h1v.9999998h11v-5.9999998h-10.2714844a1.99995 1.99995 0 0 0 .2714844-1 1.99995 1.99995 0 0 0 -2-2zm0 1a.999975.999975 0 0 1 1 1 .999975.999975 0 0 1 -1 1 .999975.999975 0 0 1 -1-1 .999975.999975 0 0 1 1-1z" fill="#bebebe"/></svg>
